packages/katcn/src/icons/svg/move.svg

<svg width="24" height="25" viewBox="0 0 24 25" fill="none" xmlns="http://www.w3.org/2000/svg">
<path d="M22.2 11.468L19.1 9.26802C18.6 8.96802 18 9.06802 17.7 9.46802C17.4 9.86802 17.5 10.568 18 10.868L20.9 12.968L18.3 14.768V12.968C18.3 12.368 17.9 11.968 17.3 11.968H13V8.66802H14.2C14.9 8.66802 15.5 8.26802 15.8 7.66802C16.1 7.06802 16.1 6.36802 15.7 5.76802L13.5 2.66802C12.8 1.76802 11.2 1.76802 10.6 2.66802L8.3 5.76802C8 6.26802 8.1 6.86802 8.5 7.16802C9 7.46802 9.6 7.36802 9.9 6.96802L12 4.06802L13.8 6.66802H12C11.4 6.66802 11 7.06802 11 7.66802V11.968H7.7V10.668C7.7 9.96802 7.3 9.36802 6.7 9.06802C6.1 8.76802 5.4 8.86802 4.9 9.26802L1.8 11.468C1.3 11.768 1 12.368 1 12.968C1 13.568 1.3 14.068 1.8 14.468L4.9 16.668C5.1 16.768 5.3 16.868 5.5 16.868C5.8 16.868 6.1 16.768 6.3 16.468C6.6 15.968 6.5 15.268 6 14.968L3.1 12.968L5.7 11.168V12.968C5.7 13.568 6.1 13.968 6.7 13.968H11V17.268H9.8C9.1 17.268 8.5 17.668 8.2 18.268C7.9 18.868 7.9 19.568 8.3 20.168L10.5 23.268C10.9 23.668 11.4 23.968 12 23.968C12.6 23.968 13.1 23.668 13.5 23.168L15.7 20.068C16 19.668 15.9 18.968 15.5 18.668C15 18.368 14.4 18.468 14.1 18.868L12 21.768L10.2 19.168H12C12.6 19.168 13 18.768 13 18.168V13.968H16.3V15.168C16.3 15.868 16.7 16.468 17.3 16.768C17.6 16.868 17.8 16.968 18.1 16.968C18.5 16.968 18.8 16.868 19.1 16.668L22.2 14.468C22.7 14.168 23 13.568 23 12.968C23 12.368 22.7 11.768 22.2 11.468Z" fill="black"/>
</svg>

<svg xmlns="http://www.w3.org/2000/svg" fill="none" viewBox="0 0 24 25"><path fill="#000" d="m22.2 11.468-3.1-2.2c-.5-.3-1.1-.2-1.4.2s-.2 1.1.3 1.4l2.9 2.1-2.6 1.8v-1.8c0-.6-.4-1-1-1H13v-3.3h1.2c.7 0 1.3-.4 1.6-1s.3-1.3-.1-1.9l-2.2-3.1c-.7-.9-2.3-.9-2.9 0l-2.3 3.1c-.3.5-.2 1.1.2 1.4.5.3 1.1.2 1.4-.2l2.1-2.9 1.8 2.6H12c-.6 0-1 .4-1 1v4.3H7.7v-1.3c0-.7-.4-1.3-1-1.6s-1.3-.2-1.8.2l-3.1 2.2c-.5.3-.8.9-.8 1.5s.3 1.1.8 1.5l3.1 2.2c.2.1.4.2.6.2.3 0 .6-.1.8-.4.3-.5.2-1.2-.3-1.5l-2.9-2 2.6-1.8v1.8c0 .6.4 1 1 1H11v3.3H9.8c-.7 0-1.3.4-1.6 1s-.3 1.3.1 1.9l2.2 3.1c.4.4.9.7 1.5.7s1.1-.3 1.5-.8l2.2-3.1c.3-.4.2-1.1-.2-1.4-.5-.3-1.1-.2-1.4.2l-2.1 2.9-1.8-2.6H12c.6 0 1-.4 1-1v-4.2h3.3v1.2c0 .7.4 1.3 1 1.6.3.1.5.2.8.2.4 0 .7-.1 1-.3l3.1-2.2c.5-.3.8-.9.8-1.5s-.3-1.2-.8-1.5"/></svg>
